images/ok-icon-grey.svg

<svg width="25" height="25" viewBox="0 0 25 25" fill="none" xmlns="http://www.w3.org/2000/svg">
<path d="M24.1231 21.1985C24.1231 23.1459 22.5506 24.7243 20.611 24.7243H3.51206C1.57238 24.7243 0 23.1459 0 21.1985V4.15629C0 2.20902 1.57238 0.630493 3.51206 0.630493H20.611C22.5507 0.630493 24.1231 2.20902 24.1231 4.15629V21.1985Z" fill="#C4C4C4"/>
<path d="M23.9993 21.1106C23.9993 23.0378 22.443 24.6001 20.5233 24.6001H3.59997C1.68024 24.6001 0.124023 23.0378 0.124023 21.1106V4.24333C0.124023 2.3161 1.6803 0.753799 3.59997 0.753799H20.5233C22.443 0.753799 23.9993 2.31616 23.9993 4.24333V21.1106Z" fill="#C4C4C4"/>
<path d="M12.0481 4.23141C9.65731 4.23141 7.71924 6.17712 7.71924 8.5772C7.71924 10.9773 9.65731 12.9232 12.0481 12.9232C14.4389 12.9232 16.3769 10.9773 16.3769 8.5772C16.3769 6.17712 14.4389 4.23141 12.0481 4.23141ZM12.0481 10.3738C11.0598 10.3738 10.2586 9.56939 10.2586 8.57726C10.2586 7.58513 11.0598 6.78081 12.0481 6.78081C13.0364 6.78081 13.8375 7.58513 13.8375 8.57726C13.8375 9.56939 13.0364 10.3738 12.0481 10.3738Z" fill="white"/>
<path d="M13.5764 16.3811C15.3094 16.0267 16.3479 15.2028 16.4028 15.1586C16.9099 14.7503 16.9914 14.0066 16.5847 13.4975C16.1781 12.9884 15.4374 12.9066 14.9301 13.3148C14.9194 13.3235 13.8118 14.1765 11.9893 14.1778C10.1669 14.1765 9.03583 13.3235 9.02511 13.3148C8.51788 12.9066 7.77715 12.9884 7.37052 13.4975C6.96383 14.0066 7.04529 14.7503 7.5524 15.1586C7.6081 15.2034 8.68947 16.0488 10.4711 16.3949L7.98809 18.9999C7.53686 19.4697 7.55042 20.2177 8.01838 20.6707C8.24679 20.8918 8.54117 21.0017 8.8353 21.0017C9.14368 21.0017 9.45175 20.8808 9.6827 20.6403L11.9894 18.1735L14.529 20.6563C14.9892 21.1175 15.7343 21.1167 16.1936 20.6549C16.6529 20.1931 16.6523 19.445 16.1923 18.9839L13.5764 16.3811Z" fill="white"/>
<path d="M11.9893 14.1777C11.9867 14.1777 11.9918 14.1777 11.9893 14.1778C11.9868 14.1777 11.9918 14.1777 11.9893 14.1777Z" fill="white"/>
</svg>

<svg width="25" height="25" fill="none" xmlns="http://www.w3.org/2000/svg"><path d="M24.123 21.198a3.519 3.519 0 01-3.512 3.526H3.512A3.519 3.519 0 010 21.198V4.156A3.519 3.519 0 013.512.63h17.099a3.519 3.519 0 013.512 3.526v17.042z" fill="#C4C4C4"/><path d="M24 21.11a3.483 3.483 0 01-3.477 3.49H3.6a3.483 3.483 0 01-3.476-3.49V4.244A3.483 3.483 0 013.6.753h16.923A3.483 3.483 0 0124 4.244v16.868z" fill="#C4C4C4"/><path d="M12.048 4.231c-2.39 0-4.329 1.946-4.329 4.346 0 2.4 1.938 4.346 4.33 4.346 2.39 0 4.328-1.946 4.328-4.346 0-2.4-1.938-4.346-4.329-4.346zm0 6.143c-.988 0-1.79-.805-1.79-1.797 0-.992.802-1.796 1.79-1.796s1.79.804 1.79 1.796-.802 1.797-1.79 1.797zM13.576 16.381c1.733-.354 2.772-1.178 2.827-1.222a1.185 1.185 0 00.182-1.662 1.174 1.174 0 00-1.655-.182c-.01.008-1.118.862-2.94.863-1.823-.002-2.954-.855-2.965-.863a1.174 1.174 0 00-1.654.183 1.185 1.185 0 00.181 1.66c.056.045 1.137.89 2.92 1.237L7.987 19a1.185 1.185 0 00.03 1.67 1.17 1.17 0 001.665-.03l2.306-2.466 2.54 2.482c.46.462 1.205.46 1.665-.001.459-.462.458-1.21-.002-1.671l-2.616-2.603zM11.99 14.178c-.003 0 .002 0 0 0-.003 0 .002 0 0 0z" fill="#fff"/></svg>
